X: 2
T: Lorcan's Trip To Paris
R: waltz
M: 3/4
L: 1/8
K: Ador
C: Jack BRENNAN
GF |: E3D GA | FD E3F | G3A BG | F3E FG | E3D GA | FD E3F | G3D cB | A4 AB :|
|: c3d cB | A3D GA | B3A BG | E3D GA | E3D EG | FD E3F | G3B cB | A4 AB :|
|: e3c BA | d3c BG | E3D GA | BA Bc dB | e3c BA | d3c BG | A3D cB |1 A3B cd |2 (A4 A2) :|
|: a3g ed | e3d eg | a3g ed | B3G ED | e3c BA | d3c BG | A3D cB |1 A3B cd |2 (A4 A2) :|
